packages/core/src/svgs/wow.svg

<svg width="24" height="24" viewBox="0 0 24 24" fill="none" xmlns="http://www.w3.org/2000/svg">
<g clip-path="url(#clip0_31_20806)">
<path d="M0 0H24V24H0V0Z" fill="#F0F3FA"/>
<path d="M12.0002 18.8574C15.7873 18.8574 18.8574 15.7873 18.8574 12.0002C18.8574 8.21311 15.7873 5.14307 12.0002 5.14307C8.21311 5.14307 5.14307 8.21311 5.14307 12.0002C5.14307 15.7873 8.21311 18.8574 12.0002 18.8574Z" fill="#F3BA2F"/>
<path fill-rule="evenodd" clip-rule="evenodd" d="M12.0002 18.0002C13.5915 18.0002 15.1176 17.3681 16.2428 16.2428C17.3681 15.1176 18.0002 13.5915 18.0002 12.0002C18.0002 10.4089 17.3681 8.88279 16.2428 7.75757C15.1176 6.63235 13.5915 6.00021 12.0002 6.00021C10.4089 6.00021 8.88279 6.63235 7.75757 7.75757C6.63235 8.88279 6.00021 10.4089 6.00021 12.0002C6.00021 13.5915 6.63235 15.1176 7.75757 16.2428C8.88279 17.3681 10.4089 18.0002 12.0002 18.0002ZM12.0002 18.8574C13.8188 18.8574 15.563 18.1349 16.8489 16.8489C18.1349 15.563 18.8574 13.8188 18.8574 12.0002C18.8574 10.1816 18.1349 8.43744 16.8489 7.15148C15.563 5.86551 13.8188 5.14307 12.0002 5.14307C10.1816 5.14307 8.43744 5.86551 7.15148 7.15148C5.86551 8.43744 5.14307 10.1816 5.14307 12.0002C5.14307 13.8188 5.86551 15.563 7.15148 16.8489C8.43744 18.1349 10.1816 18.8574 12.0002 18.8574Z" fill="black"/>
<path d="M10.2859 10.7141C10.7592 10.7141 11.143 10.2345 11.143 9.64272C11.143 9.05098 10.7592 8.57129 10.2859 8.57129C9.81247 8.57129 9.42871 9.05098 9.42871 9.64272C9.42871 10.2345 9.81247 10.7141 10.2859 10.7141Z" fill="black"/>
<path d="M13.7141 10.7141C14.1875 10.7141 14.5712 10.2345 14.5712 9.64272C14.5712 9.05098 14.1875 8.57129 13.7141 8.57129C13.2407 8.57129 12.8569 9.05098 12.8569 9.64272C12.8569 10.2345 13.2407 10.7141 13.7141 10.7141Z" fill="black"/>
<path d="M11.9998 16.7141C13.1833 16.7141 14.1426 15.5629 14.1426 14.1427C14.1426 12.7226 13.1833 11.5713 11.9998 11.5713C10.8163 11.5713 9.85693 12.7226 9.85693 14.1427C9.85693 15.5629 10.8163 16.7141 11.9998 16.7141Z" fill="black"/>
</g>
<defs>
<clipPath id="clip0_31_20806">
<rect width="24" height="24" fill="white"/>
</clipPath>
</defs>
</svg>

<svg xmlns="http://www.w3.org/2000/svg" width="24" height="24" fill="none" viewBox="0 0 24 24"><g clip-path="url(#a)"><path fill="#F0F3FA" d="M0 0h24v24H0z"/><path fill="#F3BA2F" d="M12 18.857a6.857 6.857 0 1 0 0-13.714 6.857 6.857 0 0 0 0 13.714"/><path fill="#000" fill-rule="evenodd" d="M12 18a6 6 0 1 0 0-11.999 6 6 0 0 0 0 12m0 .857a6.857 6.857 0 1 0 0-13.713 6.857 6.857 0 0 0 0 13.713" clip-rule="evenodd"/><path fill="#000" d="M10.286 10.714c.473 0 .857-.48.857-1.071 0-.592-.384-1.072-.857-1.072-.474 0-.857.48-.857 1.072 0 .591.383 1.071.857 1.071M13.714 10.714c.473 0 .857-.48.857-1.071 0-.592-.383-1.072-.857-1.072-.473 0-.857.48-.857 1.072 0 .591.384 1.071.857 1.071M12 16.714c1.183 0 2.143-1.151 2.143-2.571S13.183 11.57 12 11.57c-1.184 0-2.143 1.152-2.143 2.572s.96 2.571 2.143 2.571"/></g><defs><clipPath id="a"><path fill="#fff" d="M0 0h24v24H0z"/></clipPath></defs></svg>
